static/icons/pipeline.svg

<svg width="109" height="100" viewBox="0 0 109 100" fill="none" xmlns="http://www.w3.org/2000/svg">
<path d="M49.0807 99.8316C75.3437 99.8316 96.634 78.5413 96.634 52.2783C96.634 26.0154 75.3437 4.72504 49.0807 4.72504C22.8178 4.72504 1.52744 26.0154 1.52744 52.2783C1.52744 78.5413 22.8178 99.8316 49.0807 99.8316Z" fill="#EBECE9"/>
<path d="M49.0807 4.72504C34.421 4.72504 20.6093 11.5097 11.5833 23.08C30.4834 4.78561 60.5904 5.27023 78.8242 24.1098C95.3013 41.1321 96.7551 67.7862 82.0954 86.444C100.996 68.2102 101.541 38.1638 83.3675 19.2636C74.4021 9.9347 62.0443 4.72504 49.0807 4.72504Z" fill="#C1C1C1"/>
<path d="M37.2057 35.7712C38.5787 34.5969 38.828 32.6349 37.7624 31.389C36.6968 30.1431 34.72 30.085 33.3469 31.2594C31.9739 32.4337 31.7246 34.3956 32.7902 35.6415C33.8558 36.8874 35.8327 36.9455 37.2057 35.7712Z" fill="#EEEFEE"/>
<path d="M32.846 90.9268C32.6642 90.9268 32.5431 90.8662 32.4219 90.8056C30.7863 90.0787 29.2719 89.2912 27.7575 88.3825C27.2729 88.0797 27.0911 87.3527 27.394 86.8681C27.6969 86.3835 28.3632 86.2018 28.8479 86.5046C30.3017 87.3527 31.7556 88.1402 33.27 88.8066C33.8152 89.0489 34.0575 89.7152 33.8152 90.2604C33.6941 90.6845 33.27 90.9268 32.846 90.9268Z" fill="white"/>
<path d="M24.6074 86.0805C24.3651 86.0805 24.1228 86.02 23.9411 85.8382C18.0045 81.3555 13.4006 75.3583 10.614 68.4525C10.3717 67.9073 10.6746 67.2409 11.2198 66.9986C11.765 66.7563 12.4314 67.0592 12.6737 67.6044C15.3391 74.1468 19.7007 79.8411 25.2738 84.0815C25.7584 84.4449 25.8796 85.1719 25.4555 85.6565C25.2738 85.8988 24.9709 86.0805 24.6074 86.0805Z" fill="white"/>
<path d="M68.3447 57.3671C68.8294 55.671 69.0717 53.9142 69.0717 52.1575C69.0717 50.4007 68.8294 48.5834 68.3447 46.8872L74.1602 42.1016L70.4044 35.5592L63.3774 38.2247C60.8937 35.6804 57.7437 33.9237 54.2908 33.015L53.0792 25.564H45.507L44.2955 33.015C40.782 33.9237 37.6925 35.741 35.2089 38.2852L28.1819 35.6198L24.4261 42.1622L30.2415 46.9478C29.7569 48.644 29.5146 50.4007 29.5146 52.1575C29.5146 53.9142 29.7569 55.7315 30.2415 57.4277L24.4261 62.2133L28.1819 68.7557L35.2089 66.0903C37.6925 68.6345 40.8426 70.3913 44.2955 71.3L45.507 78.751H53.0792L54.2908 71.3C57.7437 70.3913 60.8331 68.574 63.3774 66.0297L70.4044 68.6951L74.1602 62.1528L68.3447 57.3671ZM49.2628 62.5162C43.5686 62.5162 38.9041 57.8518 38.9041 52.1575C38.9041 46.4632 43.5686 41.7987 49.2628 41.7987C54.9571 41.7987 59.6216 46.4632 59.6216 52.1575C59.6216 57.8518 55.0177 62.5162 49.2628 62.5162Z" fill="#9FEFDE"/>
<path d="M45.5672 79.4776C45.2038 79.4776 44.8403 79.1747 44.7797 78.8112L43.6288 71.8448C40.4181 70.9361 37.4499 69.24 35.0268 66.938L28.4238 69.4217C28.0604 69.5429 27.6969 69.4217 27.4546 69.0582L23.6988 62.5159C23.517 62.213 23.5776 61.7889 23.8805 61.5466L29.3325 57.0639C28.4844 53.7927 28.4844 50.4004 29.3325 47.1898L23.8805 42.7676C23.5776 42.5253 23.517 42.1013 23.6988 41.7984L27.4546 35.256C27.6363 34.9531 28.0604 34.7714 28.4238 34.8926L35.0268 37.3762C37.4499 35.0743 40.3576 33.3781 43.5682 32.4089L44.7191 25.4425C44.7797 25.079 45.0826 24.7761 45.5067 24.7761H53.0788C53.4423 24.7761 53.8058 25.079 53.8663 25.4425L54.8962 32.4089C58.1068 33.3175 61.0751 35.0137 63.4982 37.3157L70.1011 34.832C70.4646 34.7108 70.8886 34.832 71.0703 35.1954L74.8261 41.7378C75.0079 42.0407 74.9473 42.4647 74.6444 42.707L69.1924 47.1898C69.6165 48.8254 69.7982 50.461 69.7982 52.1571C69.7982 53.7927 69.6165 55.4283 69.1924 57.0639L74.6444 61.4861C74.9473 61.7284 75.0079 62.1524 74.8261 62.4553L71.0703 68.9977C70.8886 69.3005 70.4646 69.4823 70.1011 69.3611L63.4982 66.8775C61.0751 69.1794 58.1673 70.8756 54.9567 71.8448L53.8058 78.8112C53.7452 79.1747 53.4423 79.4776 53.0183 79.4776H45.5672ZM35.2085 65.3024C35.3902 65.3024 35.6325 65.363 35.7537 65.5447C38.1768 67.9678 41.1451 69.664 44.4768 70.5727C44.7797 70.6333 45.022 70.8756 45.022 71.1785L46.173 77.9631H52.4125L53.5029 71.1785C53.5635 70.8756 53.8058 70.6333 54.0481 70.5727C57.3193 69.7246 60.3481 67.9678 62.7712 65.5447C63.0135 65.3024 63.3164 65.2419 63.6193 65.363L70.0405 67.7861L73.13 62.3947L67.7992 58.0331C67.5568 57.8514 67.4357 57.4879 67.5568 57.1851C67.9809 55.5495 68.2232 53.9139 68.2232 52.2177C68.2232 50.5215 67.9809 48.8254 67.4963 47.1292C67.4357 46.8263 67.4963 46.5234 67.7386 46.3417L73.0694 41.9801L69.9799 36.5887L63.5587 39.0118C63.2558 39.133 62.953 39.0724 62.7106 38.8301C60.2876 36.407 57.3193 34.6502 53.9875 33.8022C53.6846 33.7416 53.4423 33.4993 53.4423 33.1964L52.2913 26.4117H46.0519L44.9615 33.1964C44.9009 33.4993 44.6586 33.7416 44.4163 33.8022C41.1451 34.6502 38.1162 36.407 35.6931 38.8301C35.4508 39.0724 35.1479 39.133 34.845 39.0118L28.4238 36.5887L25.3344 41.9801L30.6652 46.3417C30.9075 46.5234 31.0286 46.8263 30.9075 47.1292C30.4834 48.7648 30.2411 50.461 30.2411 52.1571C30.2411 53.8533 30.4834 55.5495 30.9681 57.1851C31.0286 57.4879 30.9681 57.7908 30.7258 57.9726L25.3949 62.3341L28.4844 67.7255L34.9056 65.3024C35.0268 65.3024 35.1479 65.3024 35.2085 65.3024ZM49.2625 63.3034C43.0836 63.3034 38.1162 58.336 38.1162 52.1571C38.1162 45.9782 43.0836 41.0109 49.2625 41.0109C55.4414 41.0109 60.4087 45.9782 60.4087 52.1571C60.4087 58.2755 55.4414 63.3034 49.2625 63.3034ZM49.2625 42.5859C43.9922 42.5859 39.6912 46.8869 39.6912 52.1571C39.6912 57.4274 43.9922 61.7284 49.2625 61.7284C54.5327 61.7284 58.8337 57.4274 58.8337 52.1571C58.8337 46.8869 54.5933 42.5859 49.2625 42.5859Z" fill="#244583"/>
<path d="M49.5048 4.90677L45.4461 1.15097L45.3249 1.02982L46.3547 0L51.625 4.90677L46.3547 9.87413L45.3855 8.78373L49.5048 4.90677Z" fill="#244583"/>
<path d="M50.1711 4.17982C39.2066 3.99809 28.3632 7.57216 19.7006 14.2963C3.52647 26.8358 -2.4707 47.6744 2.92069 66.2111L4.2534 65.6659C-0.956265 47.735 4.91975 27.5627 20.6093 15.4472C29.1507 8.84429 39.3883 5.39137 50.1711 5.63368H50.2923V4.17982H50.1711Z" fill="#244583"/>
<path d="M88.759 78.9324L94.1504 77.5997L94.2715 77.5391L94.635 78.9324L87.608 80.6891L86.3965 73.6016L87.7897 73.3593L88.759 78.9324Z" fill="#244583"/>
<path d="M89.0618 79.9017C95.2407 70.815 98.0879 59.79 97.2398 48.8254C95.6042 28.4108 81.4291 11.9943 62.953 6.4212L62.6501 7.81448C80.5204 13.2665 94.1503 29.1983 95.7859 48.9466C96.634 59.7294 93.908 70.1487 87.8503 79.1142L87.7897 79.2353L89.0013 80.0228L89.0618 79.9017Z" fill="#244583"/>
<path d="M8.00919 74.7526L6.73706 80.144L6.67648 80.2652L5.2832 79.9623L6.97937 72.9353L13.8852 75.1161L13.4006 76.5094L8.00919 74.7526Z" fill="#244583"/>
<path d="M6.98016 74.5713C12.1898 84.2031 20.6101 91.8965 30.7871 96.1975C49.6267 104.133 70.7682 99.2263 84.277 85.4147L83.126 84.506C70.0413 97.8331 49.5661 102.558 31.3323 94.8648C21.337 90.6849 13.4014 83.4156 8.25229 73.905L8.19171 73.7838L6.91959 74.4502L6.98016 74.5713Z" fill="#244583"/>
<path d="M90.5162 3.75639C88.396 5.14967 83.4892 7.99681 77.4921 9.26893C76.5228 9.45067 75.8565 10.2988 75.8565 11.268V27.5028C75.8565 29.1989 76.0988 30.8951 76.5834 32.5307C77.6738 36.1048 79.9151 39.1942 82.8834 41.375L90.8797 47.1904C91.3037 47.4933 91.9095 47.4933 92.3335 47.1904L100.33 41.375C103.359 39.1942 105.539 36.1048 106.63 32.5307C107.114 30.8951 107.357 29.1989 107.357 27.5028V11.268C107.357 10.2988 106.69 9.45067 105.721 9.26893C99.724 7.99681 94.8172 5.14967 92.697 3.75639C92.0912 3.33234 91.1826 3.33234 90.5162 3.75639Z" fill="#9FEFDE"/>
<path d="M106.145 8.8443C105.963 8.78372 105.842 8.78372 105.66 8.72314C105.963 9.08661 106.145 9.51065 106.145 10.0558V26.7752C106.145 28.532 105.902 30.2887 105.357 31.9243C104.206 35.559 101.844 38.7696 98.6937 41.0109L90.2128 46.9475C90.0311 47.0687 89.7888 47.1293 89.5465 47.1898L90.3945 47.7956C90.8186 48.0985 91.4849 48.0985 91.909 47.7956L100.39 41.859C103.6 39.6176 105.902 36.407 107.053 32.7724C107.599 31.0762 107.841 29.3801 107.841 27.6233V10.9039C107.901 9.87412 107.175 9.08661 106.145 8.8443Z" fill="#24C4A1"/>
<path d="M106.205 8.3598C100.087 7.08767 94.9985 4.0588 93.06 2.84725C92.2119 2.30206 91.061 2.30206 90.2129 2.84725C88.335 4.0588 83.2465 7.08767 77.0676 8.3598C75.856 8.60211 74.9474 9.69251 74.9474 10.9646V27.5629C74.9474 29.3802 75.1897 31.1369 75.7349 32.8937C76.8858 36.5889 79.2484 39.9207 82.3984 42.162L90.5763 48.0986C90.8792 48.3409 91.2427 48.4621 91.6667 48.4621C92.0908 48.4621 92.3937 48.3409 92.7571 48.0986L100.935 42.162C104.085 39.8601 106.448 36.5889 107.599 32.8937C108.144 31.1975 108.386 29.3802 108.386 27.5629V10.9646C108.326 9.75308 107.417 8.66269 106.205 8.3598ZM107.175 10.9646V27.5629C107.175 29.259 106.932 30.8946 106.448 32.5302C105.357 35.9831 103.176 39.1331 100.208 41.2534L92.0302 47.19C91.7879 47.3717 91.485 47.3717 91.2427 47.19L83.0647 41.2534C80.0965 39.1331 77.9157 36.0437 76.8253 32.5302C76.3406 30.8946 76.0983 29.259 76.0983 27.5629V10.9646C76.0983 10.2377 76.583 9.63193 77.3099 9.51077C83.4282 8.23865 88.3956 5.39151 90.8187 3.81649C91.3033 3.5136 91.9696 3.5136 92.4543 3.81649C94.8773 5.39151 99.8447 8.23865 105.963 9.51077C106.69 9.63193 107.175 10.2377 107.175 10.9646Z" fill="#22417D"/>
<path d="M91.6061 48.5226C91.1821 48.5226 90.8186 48.4014 90.4551 48.1591L82.2772 42.2225C79.1272 39.9206 76.7041 36.5888 75.5531 32.833C75.0079 31.0763 74.7656 29.3195 74.7656 27.5022V10.9645C74.7656 9.63183 75.6742 8.54143 77.0069 8.23855C83.1253 6.96642 88.2138 3.93755 90.0917 2.726C91.0003 2.12022 92.2119 2.12022 93.1206 2.726C94.9985 3.93755 100.087 6.96642 106.205 8.23855C107.477 8.54143 108.447 9.63183 108.447 10.9645V27.5628C108.447 29.3801 108.204 31.1974 107.659 32.8936C106.508 36.6494 104.146 39.9811 100.935 42.2831L92.7571 48.2197C92.4542 48.4014 92.0302 48.5226 91.6061 48.5226ZM91.6061 2.54427C91.1215 2.54427 90.6369 2.66542 90.2734 2.96831C88.3955 4.17986 83.307 7.20873 77.1281 8.54143C75.9771 8.78374 75.129 9.81356 75.129 10.9645V27.5628C75.129 29.3195 75.3714 31.1368 75.9165 32.833C77.0675 36.5282 79.3695 39.7994 82.5195 42.0408L90.6975 47.9774C91.2427 48.4014 92.0907 48.4014 92.6359 47.9774L100.814 42.0408C103.903 39.7994 106.266 36.5282 107.417 32.833C107.962 31.1368 108.204 29.3801 108.204 27.5628V10.9645C108.204 9.81356 107.356 8.78374 106.205 8.54143C100.026 7.20873 94.9379 4.24043 93.06 2.96831C92.5754 2.726 92.0907 2.54427 91.6061 2.54427ZM91.6061 47.4322C91.4244 47.4322 91.2427 47.3716 91.1215 47.2504L82.9435 41.3138C79.9752 39.133 77.7339 36.0436 76.6435 32.5301C76.1589 30.8945 75.9165 29.1983 75.9165 27.5022V10.9645C75.9165 10.177 76.4617 9.51067 77.2493 9.32894C83.307 8.05681 88.2744 5.20967 90.6975 3.63466C91.2427 3.2712 91.9696 3.2712 92.5148 3.63466C94.9379 5.20967 99.9052 7.99624 105.963 9.32894C106.75 9.51067 107.296 10.177 107.296 10.9645V27.5628C107.296 29.2589 107.053 30.9551 106.569 32.5907C105.478 36.1042 103.237 39.1936 100.269 41.3744L92.0907 47.2504C91.9696 47.3716 91.7878 47.4322 91.6061 47.4322ZM91.6061 3.69524C91.3638 3.69524 91.1215 3.75582 90.8792 3.93755C88.4561 5.51256 83.4887 8.3597 77.3098 9.63183C76.6435 9.75298 76.2194 10.2982 76.2194 10.9645V27.5628C76.2194 29.2589 76.4617 30.8945 76.9464 32.4695C78.0368 35.9224 80.2176 39.0119 83.1253 41.1321L91.3032 47.0687C91.485 47.1898 91.7273 47.1898 91.909 47.0687L100.087 41.1321C102.995 39.0119 105.175 35.9224 106.266 32.4695C106.75 30.8945 106.993 29.1983 106.993 27.5628V10.9645C106.993 10.2982 106.508 9.75298 105.902 9.63183C99.7841 8.3597 94.7561 5.51256 92.333 3.93755C92.1513 3.75582 91.909 3.69524 91.6061 3.69524Z" fill="#22417D"/>
<path d="M97.1189 16.4773L88.4563 26.3514L85.6092 24.0495C84.3371 23.0197 82.5197 23.2014 81.4899 24.4735C80.4601 25.7457 80.6419 27.563 81.914 28.5928L89.1227 34.4082L101.541 20.2937C102.631 19.0821 102.51 17.2042 101.238 16.1744C100.027 15.1446 98.2093 15.2658 97.1189 16.4773Z" fill="#EBECE9"/>
<path d="M102.813 18.1732C102.752 17.2646 102.328 16.4165 101.601 15.7501C100.148 14.478 97.9062 14.6597 96.6946 16.053L88.3955 25.5031L85.9724 23.5646C84.458 22.3531 82.2772 22.5954 81.0656 24.1098C80.4598 24.8367 80.2175 25.7454 80.2781 26.6541C80.3993 27.5627 80.8233 28.4108 81.5502 29.0166L89.183 35.1955L101.904 20.6569C102.571 19.9905 102.874 19.0819 102.813 18.1732ZM82.3377 28.1079C81.8531 27.6839 81.5502 27.1387 81.4897 26.5329C81.4291 25.9271 81.6108 25.3214 82.0349 24.7762C82.4589 24.231 83.1858 23.9281 83.8522 23.9281C84.3974 23.9281 84.9426 24.1098 85.3666 24.4733L88.6378 27.0781L97.6033 16.8405C98.4514 15.8713 99.9658 15.7501 100.935 16.5982C101.42 17.0222 101.723 17.5674 101.723 18.2338C101.783 18.8396 101.541 19.4453 101.117 19.93L89.1224 33.6205L82.3377 28.1079Z" fill="#22417D"/>
</svg>

<svg xmlns="http://www.w3.org/2000/svg" width="109" height="100" fill="none" xmlns:v="https://vecta.io/nano"><path d="M49.081 99.832c26.263 0 47.553-21.29 47.553-47.553S75.344 4.725 49.081 4.725 1.527 26.015 1.527 52.278s21.29 47.553 47.553 47.553z" fill="#ebece9"/><path d="M49.081 4.725c-14.66 0-28.471 6.785-37.497 18.355 18.9-18.294 49.007-17.81 67.241 1.03 16.477 17.022 17.931 43.676 3.271 62.334 18.901-18.234 19.446-48.28 1.272-67.18C74.402 9.935 62.044 4.725 49.081 4.725z" fill="#c1c1c1"/><path d="M37.206 35.771c1.373-1.174 1.622-3.136.557-4.382s-3.042-1.304-4.416-.13-1.622 3.136-.557 4.382 3.043 1.304 4.416.13z" fill="#eeefee"/><path d="M32.846 90.927c-.182 0-.303-.061-.424-.121a42.44 42.44 0 0 1-4.664-2.423c-.485-.303-.666-1.03-.364-1.514s.969-.666 1.454-.364l4.422 2.302c.545.242.787.909.545 1.454-.121.424-.545.666-.969.666zm-8.239-4.846c-.242 0-.485-.061-.666-.242-5.937-4.483-10.54-10.48-13.327-17.386-.242-.545.061-1.212.606-1.454s1.212.061 1.454.606a39.37 39.37 0 0 0 12.6 16.477c.485.363.606 1.09.182 1.575a1.06 1.06 0 0 1-.848.424z" fill="#fff"/><path d="M68.345 57.367c.485-1.696.727-3.453.727-5.21s-.242-3.574-.727-5.27l5.816-4.786-3.756-6.542-7.027 2.666c-2.484-2.544-5.634-4.301-9.087-5.21l-1.212-7.451h-7.572l-1.212 7.451c-3.514.909-6.603 2.726-9.087 5.27l-7.027-2.665-3.756 6.542 5.815 4.786a18.98 18.98 0 0 0-.727 5.21c0 1.757.242 3.574.727 5.27l-5.815 4.786 3.756 6.542 7.027-2.665c2.484 2.544 5.634 4.301 9.087 5.21l1.212 7.451h7.572l1.212-7.451c3.453-.909 6.542-2.726 9.087-5.27l7.027 2.665 3.756-6.542-5.815-4.786zm-19.082 5.149c-5.694 0-10.359-4.664-10.359-10.359s4.665-10.359 10.359-10.359 10.359 4.665 10.359 10.359-4.604 10.359-10.359 10.359z" fill="#9fefde"/><g fill="#244583"><path d="M45.567 79.478a.84.84 0 0 1-.788-.666l-1.151-6.966c-3.211-.909-6.179-2.605-8.602-4.907l-6.603 2.484c-.363.121-.727 0-.969-.364l-3.756-6.542c-.182-.303-.121-.727.182-.969l5.452-4.483c-.848-3.271-.848-6.663 0-9.874l-5.452-4.422c-.303-.242-.364-.666-.182-.969l3.756-6.542c.182-.303.606-.485.969-.363l6.603 2.484a21.31 21.31 0 0 1 8.541-4.967l1.151-6.966a.79.79 0 0 1 .788-.666h7.572a.84.84 0 0 1 .788.666l1.03 6.966c3.211.909 6.179 2.605 8.602 4.907l6.603-2.484c.364-.121.787 0 .969.363l3.756 6.542c.182.303.121.727-.182.969l-5.452 4.483c.424 1.636.606 3.271.606 4.967 0 1.636-.182 3.271-.606 4.907l5.452 4.422c.303.242.364.666.182.969l-3.756 6.542c-.182.303-.606.485-.969.363l-6.603-2.484a21.31 21.31 0 0 1-8.541 4.967l-1.151 6.966c-.061.364-.363.666-.787.666h-7.451zM35.209 65.302c.182 0 .424.061.545.242 2.423 2.423 5.391 4.119 8.723 5.028.303.061.545.303.545.606l1.151 6.785h6.24l1.09-6.785a.8.8 0 0 1 .545-.606c3.271-.848 6.3-2.605 8.723-5.028a.75.75 0 0 1 .848-.182l6.421 2.423 3.09-5.391-5.331-4.362a.75.75 0 0 1-.242-.848c.424-1.636.666-3.271.666-4.967a18.44 18.44 0 0 0-.727-5.089c-.061-.303 0-.606.242-.787l5.331-4.362-3.09-5.391-6.421 2.423a.75.75 0 0 1-.848-.182c-2.423-2.423-5.391-4.18-8.723-5.028-.303-.061-.545-.303-.545-.606l-1.151-6.785h-6.239l-1.09 6.785a.8.8 0 0 1-.545.606c-3.271.848-6.3 2.605-8.723 5.028a.75.75 0 0 1-.848.182l-6.421-2.423-3.089 5.391 5.331 4.362c.242.182.363.485.242.787-.424 1.636-.666 3.332-.666 5.028a17.7 17.7 0 0 0 .727 5.028c.061.303 0 .606-.242.788l-5.331 4.361 3.09 5.391 6.421-2.423h.303zm14.054-1.999a11.12 11.12 0 0 1-11.146-11.146c0-6.179 4.967-11.146 11.146-11.146s11.146 4.967 11.146 11.146a11.16 11.16 0 0 1-11.146 11.146zm0-20.717c-5.27 0-9.571 4.301-9.571 9.571s4.301 9.571 9.571 9.571 9.571-4.301 9.571-9.571-4.24-9.571-9.571-9.571zm.242-37.679l-4.059-3.756-.121-.121L46.355 0l5.27 4.907-5.27 4.967-.969-1.09 4.119-3.877z"/><path d="M50.171 4.18c-10.965-.182-21.808 3.392-30.47 10.116C3.526 26.836-2.471 47.674 2.921 66.211l1.333-.545c-5.21-17.931.666-38.103 16.356-50.219 8.541-6.603 18.779-10.056 29.562-9.814h.121V4.18h-.121zm38.588 74.752L94.15 77.6l.121-.061.364 1.393-7.027 1.757-1.212-7.087 1.393-.242.969 5.573z"/><path d="M89.062 79.902c6.179-9.087 9.026-20.112 8.178-31.076-1.636-20.415-15.811-36.831-34.287-42.404l-.303 1.393c17.87 5.452 31.5 21.384 33.136 41.132.848 10.783-1.878 21.202-7.936 30.168l-.061.121 1.212.788.061-.121zM8.009 74.753l-1.272 5.391-.061.121-1.393-.303 1.696-7.027 6.906 2.181-.485 1.393-5.391-1.757z"/><path d="M6.98 74.571c5.21 9.632 13.63 17.325 23.807 21.626 18.84 7.935 39.981 3.029 53.49-10.783l-1.151-.909c-13.085 13.327-33.56 18.052-51.794 10.359-9.995-4.18-17.931-11.449-23.08-20.96l-.061-.121-1.272.666.061.121z"/></g><path d="M90.516 3.756c-2.12 1.393-7.027 4.24-13.024 5.513-.969.182-1.636 1.03-1.636 1.999v16.235a17.71 17.71 0 0 0 .727 5.028c1.09 3.574 3.332 6.663 6.3 8.844l7.996 5.815a1.28 1.28 0 0 0 1.454 0l7.996-5.815c3.029-2.181 5.209-5.27 6.3-8.844a17.73 17.73 0 0 0 .727-5.028V11.268c0-.969-.667-1.817-1.636-1.999-5.997-1.272-10.904-4.119-13.024-5.513-.606-.424-1.514-.424-2.181 0z" fill="#9fefde"/><path d="M106.145 8.844c-.182-.061-.303-.061-.485-.121.303.363.485.788.485 1.333v16.719c0 1.757-.243 3.513-.788 5.149-1.151 3.635-3.513 6.845-6.663 9.087l-8.481 5.937c-.182.121-.424.182-.666.242l.848.606a1.38 1.38 0 0 0 1.515 0l8.481-5.937a17.5 17.5 0 0 0 6.663-9.087c.546-1.696.788-3.392.788-5.149V10.904c.06-1.03-.666-1.817-1.696-2.06z" fill="#24c4a1"/><g fill="#22417d"><path d="M106.205 8.36c-6.118-1.272-11.206-4.301-13.145-5.513-.848-.545-1.999-.545-2.847 0-1.878 1.212-6.966 4.24-13.145 5.513-1.212.242-2.12 1.333-2.12 2.605v16.598c0 1.817.242 3.574.787 5.331 1.151 3.695 3.514 7.027 6.663 9.268l8.178 5.937c.303.242.666.364 1.09.364s.727-.121 1.09-.364l8.178-5.937c3.15-2.302 5.513-5.573 6.664-9.268.545-1.696.787-3.514.787-5.331V10.965c-.06-1.212-.969-2.302-2.181-2.605zm.97 2.605v16.598c0 1.696-.243 3.332-.727 4.967-1.091 3.453-3.272 6.603-6.24 8.723L92.03 47.19c-.242.182-.545.182-.787 0l-8.178-5.937c-2.968-2.12-5.149-5.21-6.239-8.723-.485-1.636-.727-3.271-.727-4.967V10.965c0-.727.485-1.333 1.212-1.454 6.118-1.272 11.086-4.119 13.509-5.694.485-.303 1.151-.303 1.636 0 2.423 1.575 7.39 4.422 13.509 5.694.727.121 1.212.727 1.212 1.454z"/><path d="M91.606 48.523c-.424 0-.787-.121-1.151-.363l-8.178-5.937c-3.15-2.302-5.573-5.634-6.724-9.389-.545-1.757-.787-3.513-.787-5.331V10.965c0-1.333.909-2.423 2.241-2.726 6.118-1.272 11.207-4.301 13.085-5.513a2.75 2.75 0 0 1 3.029 0c1.878 1.212 6.966 4.24 13.084 5.513 1.272.303 2.242 1.393 2.242 2.726v16.598c0 1.817-.243 3.635-.788 5.331-1.151 3.756-3.513 7.087-6.724 9.389l-8.178 5.937a2.32 2.32 0 0 1-1.151.303zm0-45.978c-.485 0-.969.121-1.333.424-1.878 1.212-6.966 4.24-13.145 5.573-1.151.242-1.999 1.272-1.999 2.423v16.598c0 1.757.242 3.574.787 5.27 1.151 3.695 3.453 6.966 6.603 9.208l8.178 5.937a1.64 1.64 0 0 0 1.938 0l8.178-5.937c3.089-2.241 5.452-5.513 6.603-9.208.545-1.696.787-3.453.787-5.27V10.965c0-1.151-.848-2.181-1.999-2.423-6.179-1.333-11.267-4.301-13.145-5.573-.485-.242-.969-.424-1.454-.424zm0 44.888c-.182 0-.363-.061-.485-.182l-8.178-5.937c-2.968-2.181-5.21-5.27-6.3-8.784a17.71 17.71 0 0 1-.727-5.028V10.965c0-.787.545-1.454 1.333-1.636 6.058-1.272 11.025-4.119 13.448-5.694a1.65 1.65 0 0 1 1.817 0c2.423 1.575 7.39 4.362 13.448 5.694.787.182 1.333.848 1.333 1.636v16.598a17.73 17.73 0 0 1-.727 5.028c-1.091 3.514-3.332 6.603-6.3 8.784l-8.178 5.876c-.121.121-.303.182-.485.182zm0-43.737c-.242 0-.485.061-.727.242-2.423 1.575-7.391 4.422-13.569 5.694-.666.121-1.09.666-1.09 1.333v16.598c0 1.696.242 3.332.727 4.907 1.09 3.453 3.271 6.542 6.179 8.663l8.178 5.937a.55.55 0 0 0 .606 0l8.178-5.937c2.908-2.12 5.088-5.21 6.179-8.663a16.91 16.91 0 0 0 .727-4.907V10.965c0-.666-.485-1.212-1.091-1.333-6.118-1.272-11.146-4.119-13.569-5.694-.182-.182-.424-.242-.727-.242z"/></g><path d="M97.119 16.477l-8.663 9.874-2.847-2.302c-1.272-1.03-3.09-.848-4.119.424s-.848 3.089.424 4.119l7.209 5.815 12.418-14.114c1.09-1.212.969-3.09-.303-4.119-1.211-1.03-3.029-.909-4.119.303z" fill="#ebece9"/><path d="M102.813 18.173c-.061-.909-.485-1.757-1.212-2.423-1.453-1.272-3.695-1.09-4.906.303l-8.299 9.45-2.423-1.939c-1.514-1.211-3.695-.969-4.907.545-.606.727-.848 1.636-.788 2.544.121.909.545 1.757 1.272 2.363l7.633 6.179 12.721-14.539c.667-.666.97-1.575.909-2.484zm-20.475 9.935c-.485-.424-.787-.969-.848-1.575s.121-1.212.545-1.757 1.151-.848 1.817-.848c.545 0 1.09.182 1.514.545l3.271 2.605 8.966-10.238c.848-.969 2.362-1.09 3.332-.242.485.424.788.969.788 1.636.06.606-.182 1.212-.606 1.696L89.122 33.621l-6.785-5.513z" fill="#22417d"/></svg>
